outputs/icons/communication/conversation_sharp.svg

<svg xmlns="http://www.w3.org/2000/svg" width="1200" height="1200" fill="none"><g clip-path="url(#a)"><path fill="#000" d="M1100 300H950v450H300v150h600l200 200zM850 650V100H100v750l200-200z"/></g><defs><clipPath id="a"><path fill="#fff" d="M0 0h1200v1200H0z"/></clipPath></defs></svg>

<svg width="1200" height="1200" viewBox="0 0 1200 1200" fill="none" xmlns="http://www.w3.org/2000/svg"><g clip-path="url(#clip0_117_782)"><path d="M1100 300H950V750H300V900H900L1100 1100V300ZM850 650V100H100V850L300 650H850Z" fill="#1D1E23"/></g><defs><clipPath id="clip0_117_782"><path width="24" fill="white" d="M0 0H1200V1200H0V0z"/></clipPath></defs></svg>
